X: 762
T: Feryâd ki Feryâdıma
C: Tanburî Cemil Bey
O: Turkey
F: http://compmusic.upf.edu/node/140
N: sehnaz--sarki--senginsemai--feryad_ki--tanburi_cemil_bey
N: makam= sehnaz
N: form= sarki
N: usul= senginsemai = 6/4
M: 6/4
L: 1/16
K: C _7/8B ^1/4f ^c ^g
Q: 1/4=78
%%MIDI tuningsystem comma53
A4 a4 a3g f2g2 a8  | g2a2 =b2=c'2 b2ab a2ga g2fg fed2  | 
w:  ARANAĞME  |   | 
e3^2/4f =g2a2 g2^1/4f2 e2d2 cdef edcB  | \
w:   | 
A3a =gfed c3B cBBA A3B/c/ d/e/f/^g/a2  | 
w:   | 
A4 a4 a3g f2g2 a8  | g2a2 =b2=c'2 b2ab a2ga g2fg fed2  | 
w:  ARANAĞME  |   | 
e3^2/4f =g2a2 g2^1/4f2 e2d2 cdef edcB  | \
w:   | 
A3a =gfed c3B cBBA A4 z4  | 
w:   | 
A4 a8 =b4 =c'3b a2b2  | g4 a4 a2=b2 a2g2 f3e d2e2  | \
w:  Fer yâd  ki  fer  |  yâ *  dı *  ma  *  im  | 
d4 e8 gffe e6z2  | 
w:  dâd   | 
d4 f8 f2{g}fe f6e2  | e4 =b2=c'2 b2a2 a2g2 g2fg f2e2  | \
w:  im dâd   |  im dâd  *  e *  de *  cek   | 
e8 e3d a=g^3/4fg a3=b ag^1/4fe  | 
w:  yok   SAZ  | 
z24  | d4 a8 a2=g2 =b2a2 b2a2  | a2=g2 a2g2 {g}f3e d4 g6z2  | \
w:  |  Ef sûs  ki  *  gam  |  dan  *  *  *  *  be *  ni  ah   | 
e4 =gffe .f4 d4 feed .e4  | 
w:  â zâd  *  *  *  *  â zâd   | 
c4 d4 {d}c2B2 A4 a8  | {a}=g2f2 e2d2 c2BA fed2 c2B2 B2A2  | \
w:  â zâd  *  e *  de cek   |  *  yok  *  *  *  gü *  *  ze *  *  lim   | 
A8 A2d2 c2e2 d8  | 
w:  yok   SAZ  | 
A4 d4 d4 e4 {g}f3e d2a2  | g4 a8 =g2^3/4f2 g4 =f2e2  | \
w:  Te sîr_ i  mu *  hab  |  bet  | 
f4 e2d2 e4 f4 e2d2 c2B2  | 
w:  *  *  *  le  yı kıl  | 
A8 a4 =b4 {d'}=c'3b a2b2  | g4 a4 a2=b2 a2g2 f3e d2a2  | \
w:  mış  mü te *  el  |  lim   | 
g4 a8 g2=b2 a4 z4  | 
w:  yâr   *  SAZ  | 
d4 a4 a4 a2{=b}=g2 b2a2 b2a2  | a2=g2 a2g2 f3e d4 g6z2  | \
w:  Vî râ ne  di *  *  li   |  bir  *  *  *  da *  hî  ah   | 
e4 =g=f2e .f4 d4 fe2d .e4  | 
w:  â bâd  *  *  *  â bâd   | 
c4 d4 c2B2 A4 a8  | {a}=g2f2 e2d2 c2B2 {A}fed2 c2B2 B2A2  | \
w:  â bâd  e *  de cek   |  *  yok  *  *  *  gü *  *  ze *  *  lim   | 
A16-A4 A4  | 
w:  yok   SAZ  | 
z10  | d3e2 e4z  | e3a2 g2a3  | e2^f=g2 gff2e  | \
w:  |  Yâ *  rab   |  ne  i çin   |  zâr_ *  ı  ni *  gâ  | 
e2d^fe dc=B2c  | 
w:  rı  *  şu  *  ci *  han  | 
d2^9/8fed c=BA3  | d3e2 e4z  | e3a2 g2{=b}a3  | \
w:  da  *  *  *  *  *  SAZ  |  yâ  *  rab   |  ne  i çin   | 
=b2ad'2 =c'bagf  | 
w:  zâr_ *  ı  ni *  gâ  | 
g2f=ba gfffe  | e2{=g}fed {e}cde.f.g  | \
w:  rı  *  şu  *  ci *  han  |  da   *  *  SAZ  | 
a3=b2 b4a  | 
w:  Nâ *  şâd   | 
g2ffe e4z  | e2d=b2 agfed  | e2da{=b}g fed2c  | 
w:  e *  de *  cek   |  çok *  sa  da  *  dil  |  şâd  *  e *  *  de *  cek   | 
d2fed ecd2z  | z24  | z24  | d4 a4 a4 a2=g2 =b2a2 b2a2  | \
w:  yok   *  SAZ  |  |  |  Ef sûs  *  ki  *  gam  | 
a2=g2 a2g2 {g}f3e d4 g6z2  | 
w:  dan  *  *  *  *  be *  ni  ah   | 
e4 =gffe .f4 d4 feed .e4  | c4 d4 {d}c2B2 A4 a8  | \
w:  â zâd  *  *  *  *  â zâd   |  â zâd  *  e *  de cek   | 
{a}=g2f2 e2d2 c2BA fed2 c2B2 B2A2  | 
w:  *  yok  *  *  *  gü *  *  ze *  *  lim   | 
A8 |
w:  yok    | 


